raws/icons/decors/basket-icon.svg

<svg width="21" height="20" viewBox="0 0 21 20" fill="none" xmlns="http://www.w3.org/2000/svg">
<path d="M0.692871 1.2494C0.692871 1.04107 0.768993 0.860777 0.921237 0.708534C1.07348 0.55629 1.25377 0.480167 1.4621 0.480167H2.88037C3.21691 0.480167 3.52941 0.56831 3.81787 0.744591C4.10633 0.920874 4.33069 1.16126 4.49095 1.46574L5.01979 2.52344H19.0342C19.531 2.52344 19.9036 2.73578 20.152 3.16046C20.4004 3.58514 20.4044 4.01382 20.164 4.44651L16.7746 10.3359C16.6143 10.6244 16.398 10.8488 16.1256 11.009C15.8531 11.1693 15.5567 11.2494 15.2361 11.2494H7.51979L6.17364 13.4129C6.12556 13.509 6.12556 13.6012 6.17364 13.6893C6.22172 13.7774 6.29383 13.8215 6.38999 13.8215H17.8804C18.0887 13.8215 18.269 13.8936 18.4212 14.0379C18.5735 14.1821 18.6496 14.3664 18.6496 14.5907C18.6496 14.7991 18.5735 14.9794 18.4212 15.1316C18.269 15.2839 18.0887 15.36 17.8804 15.36H6.38999C5.68486 15.36 5.16002 15.0515 4.81547 14.4345C4.47092 13.8175 4.49095 13.2045 4.87556 12.5956L6.24576 10.384L3.84191 3.60517L3.12076 2.16286C3.0887 2.11478 3.05265 2.07873 3.01258 2.05469C2.97252 2.03065 2.92845 2.01863 2.88037 2.01863H1.4621C1.25377 2.01863 1.07348 1.94251 0.921237 1.79026C0.768993 1.63802 0.692871 1.45773 0.692871 1.2494ZM5.62076 4.0619L7.63999 9.71094H15.2361C15.2682 9.71094 15.3043 9.69892 15.3443 9.67488C15.3844 9.65084 15.4204 9.6228 15.4525 9.59074L18.6015 4.0619H5.62076ZM8.6496 18.1725C8.6496 18.6052 8.49736 18.9698 8.19287 19.2662C7.88838 19.5627 7.52781 19.7109 7.11114 19.7109C6.67845 19.7109 6.31387 19.5627 6.01739 19.2662C5.72092 18.9698 5.57268 18.6052 5.57268 18.1725C5.57268 17.7398 5.72092 17.3752 6.01739 17.0787C6.31387 16.7823 6.67845 16.634 7.11114 16.634C7.52781 16.634 7.88838 16.7823 8.19287 17.0787C8.49736 17.3752 8.6496 17.7398 8.6496 18.1725ZM16.3419 19.7109C16.7586 19.7109 17.1192 19.5627 17.4236 19.2662C17.7281 18.9698 17.8804 18.6052 17.8804 18.1725C17.8804 17.7398 17.7281 17.3752 17.4236 17.0787C17.1192 16.7823 16.7586 16.634 16.3419 16.634C15.9092 16.634 15.5446 16.7823 15.2482 17.0787C14.9517 17.3752 14.8034 17.7398 14.8034 18.1725C14.8034 18.6052 14.9517 18.9698 15.2482 19.2662C15.5446 19.5627 15.9092 19.7109 16.3419 19.7109Z" fill="white"/>
</svg>

<svg width="21" height="20" fill="none" xmlns="http://www.w3.org/2000/svg"><path d="M.693 1.25A.74.74 0 01.92.708.74.74 0 011.462.48H2.88a1.824 1.824 0 011.61.986l.53 1.057h14.014c.497 0 .87.213 1.118.637.248.425.252.854.012 1.287l-3.39 5.889a1.748 1.748 0 01-1.538.913H7.52l-1.346 2.164a.283.283 0 000 .276c.048.088.12.133.216.133h11.49a.76.76 0 01.541.216.728.728 0 01.229.553.739.739 0 01-.229.54.739.739 0 01-.54.229H6.39c-.705 0-1.23-.308-1.575-.925-.344-.617-.324-1.23.06-1.84l1.37-2.211-2.403-6.779-.721-1.442a.347.347 0 00-.108-.108.252.252 0 00-.133-.036H1.462a.74.74 0 01-.54-.229.74.74 0 01-.23-.54zM5.62 4.061L7.64 9.71h7.596a.215.215 0 00.108-.036.56.56 0 00.109-.084l3.149-5.53H5.62zm3.029 14.11c0 .433-.153.798-.457 1.094a1.498 1.498 0 01-1.082.445c-.433 0-.797-.148-1.094-.445a1.486 1.486 0 01-.444-1.093c0-.433.148-.798.444-1.094a1.487 1.487 0 011.094-.445c.417 0 .777.148 1.082.445.304.296.457.66.457 1.093zm7.692 1.539c.417 0 .777-.148 1.082-.445.304-.296.456-.66.456-1.093 0-.433-.152-.798-.456-1.094a1.498 1.498 0 00-1.082-.445c-.433 0-.797.148-1.094.445a1.487 1.487 0 00-.445 1.093c0 .433.149.798.445 1.094.297.297.661.445 1.094.445z" fill="#fff"/></svg>
